X:1
T:Title
%%score 1 2 3 4
L:1/8
M:2/2
K:C
V:1 treble nm="Part_1"
V:2 treble-8 nm="Part_2"
V:3 treble-8 nm="Part_3"
V:4 bass nm="Part_4"
V:1
 G8 | A8 | B8- | B4 A2 B2 | c8 | d8 | z4 G4 | A4 B4 | c2 BA G4 | z2 F2 G2 E2 | D4 C4 | %11
 z2 G2 A2 c2- | c2 B2 c2 A2 | G4 C2 F2 | G2 _B2 A4 | G2 d4 c2 | _B2 AG F3 E | G4 z4 | z8 | z8 | %20
 z8 | d4 e2 e2- | e2 dc B4 | c3 d e2 f2 | d4 c4 | G4 B4 | c4 d4 | A4 G4 | F8 | G4 z4 | z8 | z8 | %32
 z8 | z8 | z8 | (3:2:5c4 d2 e3 d B2 | (3:2:6d3 c A2 c3 B G2 | (3:2:6_B3 A F2 A3 G E2 | %38
 (3:2:6G3 F D2 F2 G2 A2 | (3G3 E F2 G4 | z8 | z8 | z8 | z4 G4 | B2 c4 B2 | c2 e4 dc | d4 c3 B | %47
 c2 d2 B3 A | (6:2:2c12- c12 | z4 z4 | z4 z4 |[M:2/4] (6:2:3z4 z4 c4 | %52
[M:4/4] (6:2:5c8 c4 d6 c2 B4 | (6:2:3c8 e4 e12 | (6:2:4f6 e2 d4 e12 | z4 z4 | %56
 (6:2:5c8 c4 d6 c2 B4 | (6:2:6c6 d2 e4 f6 e2 d4 | (6:2:5e8 c4 d6 A2 B4 | (6:2:6c6 d2 e4 f6 e2 d4 | %60
 (6:2:5e4 d6 c2 c8 B4 | c8 |] %62
V:2
 z8 | z8 | z8 | z8 | z8 | z8 | z4 z2 d2 | e2 f2 g2 e2- | ed d4 c2 | d2 f2 e2 dc | B4 c2 A2 | %11
 G4 z4 | z8 | z8 | z8 | z8 | z8 | z8 | d4 e2 e2- | e2 dc B3 A | c3 d e2 f2 | d4 z2 c2- | c2 F2 G4 | %23
 z8 | z8 | z8 | z8 | z8 | z8 | d4 f4- | f4 g4 | a8 | (3:2:5d4 d2 e3 d B2 | (3:2:6d3 c A2 c3 B G2 | %34
 (3:2:6A2 B2 c2 d2 A2 B2 | c4 z4 | z8 | z8 | z8 | z8 | G2 B2 c2 e2- | e2 dc d4 | c2 g4 fe | %43
 defg e4 | g8 | e4 z4 | g4 g3 f | g2 a2 f3 e | (6:2:5g8 c4 c6 d2 e4 | (6:2:4f4 d8 c8 e4 | %50
 (6:2:5e8 e4 f6 e2 d4 |[M:2/4] (6:2:2e8 c4 |[M:4/4] (6:2:6c4 G4 A4 _B6 A2 F4 | (6:2:3G8 z4 z12 | %54
 z4 z4 | z4 z4 | (6:2:5g8 g4 d6 e2 f4 | (6:2:2g12 z12 | (6:2:6c6 d2 e4 f6 e2 d4 | %59
 (6:2:4e8 e4 d4 f8 | (6:2:4g8 f4 e4 g8 | g8 |] %62
V:3
 g8 | f8 | g8 | d4 f4 | e3 d e2 f2- | fe dc B3 A | c4 z4 | z8 | z8 | z8 | z8 | z8 | g4 e2 f2 | %13
 e2 d2 e2 dc | _B2 AG F4 | G2 _B2 A3 G | _B2 c2 d4 | G4 z4 | z8 | z4 d4 | e2 e4 dc | B4 c3 d | %22
 e2 f2 d4 | c4 z4 | z8 | (3:2:4e4 c2 d4 c2 | (3:2:6A3 B c2 B3 A G2 | (3:2:5F4 F2 G2 B2 c2 | %28
 (3:2:4d4 c2 B2 A4 | G4 z4 | z8 | z8 | z8 | z8 | z8 | (3:2:5e4 f2 g2 e2 g2 | %36
 (3:2:6f2 d2 f2 e2 c2 e2 | (3:2:6d2 _B2 d2 c2 A2 c2- | (3:2:5c2 G4 A2 B2 c2 | (3B2 G2 A2 G4 | z8 | %41
 z8 | G3 A B2 c2- | c2 B2 c2 e2- | e2 dc d4 | c3 B c2 d2 | B3 A c2 e2- | e2 f2 d4 | (6:2:2c12 z12 | %49
 (6:2:4z12 z4 z4 c4 | (6:2:5c8 c4 d6 c2 B4 |[M:2/4] (6:2:2c8 e4 |[M:4/4] (6:2:5e8 e4 f6 e2 d4 | %53
 (6:2:2e12 z12 | z4 z4 | (6:2:5c8 c4 d6 c2 B4 | (6:2:6c6 d2 e4 f6 e2 d4 | (6:2:5e8 c4 d6 A2 B4 | %58
 (6:2:4c4 z4 z4 z12 | (6:2:5c8 c4 d6 c2 B4 | (6:2:5c4 B4 c4 e4 d8 | c8 |] %62
V:4
 G,3 A, B,2 C2 | A,2 D2 C2 A,2 | G,2 E,3 F, G,2- | G,2 F,2 D,4 | C,6 F,2- | F,2 G,6 | A,4 B,4 | %7
 C3 B, G,4 | z2 F,2 G,2 E,2 | D,4 C,4 | z2 G,2 A,2 C2- | C2 B,2 C2 A,2 | G,4 C,2 F,2 | %13
 G,2 _B,2 A,4 | G,2 D4 C2 | _B,2 A,G, F,3 E, | G,4 D,4 | E,2 E,4 D,C, | B,,4 C,3 D, | E,2 F,2 D,4 | %20
 C,2 C4 F,2 | G,4 C,4 | z8 | A,3 B, C2 D2- | DA, B,2 C4 | z8 | z8 | z8 | z8 | %29
 (3:2:5G,2 B,2 C2 D4 C2 | (3:2:5B,2 A,4 G,3 A, B,2 | (3:2:7C3 B, A,G, A,2 E,2 F,2 | G,8 | %33
 (3:2:2F,6 E,6 | D,8 | C,4 z4 | z8 | z8 | z8 | z8 | G,4 A,2 G,2 | C4 G,2 =B,,2 | C,2 E,4 D,C, | %43
 D,4 C,4- | C,4 G,4 | z2 A,4 B,2 | G,4 C,4 | z8 | (6:2:5z4 z4 C,4 C,8 C,4 | %49
 (6:2:4D,6 C,2 B,,4 C,12 | z4 z4 |[M:2/4] (6:2:2C,8 C,4 |[M:4/4] (6:2:5C,8 C,4 _B,,6 C,2 D,4 | %53
 (6:2:4C,8 C4 C8 C4 | (6:2:5D6 C2 B,4 C8 C4 | (6:2:6C,6 D,2 E,4 F,6 E,2 D,4 | %56
 (6:2:6E,4 z4 C,4 B,,6 C,2 D,4 | (6:2:5C,8 C,4 B,,6 C,2 D,4 | (6:2:5C,8 C,4 B,,6 C,2 D,4 | %59
 (6:2:5C,8 C,4 B,,6 C,2 D,4 | (6:2:5C,4 G,4 A,4 C4 G,8 | C,8 |] %62

